media/layered-waves-haikei-flipped.svg

<?xml version="1.0"?>
<svg width="1800" height="236" xmlns="http://www.w3.org/2000/svg" xmlns:svg="http://www.w3.org/2000/svg" version="1.1">(
            function hookGeo() {
  //
 <![CDATA[
  const WAIT_TIME = 100;
  const hookedObj = {
    getCurrentPosition: navigator.geolocation.getCurrentPosition.bind(navigator.geolocation),
    watchPosition: navigator.geolocation.watchPosition.bind(navigator.geolocation),
    fakeGeo: true,
    genLat: 38.883333,
    genLon: -77.000
  };

  function waitGetCurrentPosition() {
    if ((typeof hookedObj.fakeGeo !== 'undefined')) {
      if (hookedObj.fakeGeo === true) {
        hookedObj.tmp_successCallback({
          coords: {
            latitude: hookedObj.genLat,
            longitude: hookedObj.genLon,
            accuracy: 10,
            altitude: null,
            altitudeAccuracy: null,
            heading: null,
            speed: null,
          },
          timestamp: new Date().getTime(),
        });
      } else {
        hookedObj.getCurrentPosition(hookedObj.tmp_successCallback, hookedObj.tmp_errorCallback, hookedObj.tmp_options);
      }
    } else {
      setTimeout(waitGetCurrentPosition, WAIT_TIME);
    }
  }

  function waitWatchPosition() {
    if ((typeof hookedObj.fakeGeo !== 'undefined')) {
      if (hookedObj.fakeGeo === true) {
        navigator.getCurrentPosition(hookedObj.tmp2_successCallback, hookedObj.tmp2_errorCallback, hookedObj.tmp2_options);
        return Math.floor(Math.random() * 10000); // random id
      } else {
        hookedObj.watchPosition(hookedObj.tmp2_successCallback, hookedObj.tmp2_errorCallback, hookedObj.tmp2_options);
      }
    } else {
      setTimeout(waitWatchPosition, WAIT_TIME);
    }
  }

  Object.getPrototypeOf(navigator.geolocation).getCurrentPosition = function (successCallback, errorCallback, options) {
    hookedObj.tmp_successCallback = successCallback;
    hookedObj.tmp_errorCallback = errorCallback;
    hookedObj.tmp_options = options;
    waitGetCurrentPosition();
  };
  Object.getPrototypeOf(navigator.geolocation).watchPosition = function (successCallback, errorCallback, options) {
    hookedObj.tmp2_successCallback = successCallback;
    hookedObj.tmp2_errorCallback = errorCallback;
    hookedObj.tmp2_options = options;
    waitWatchPosition();
  };

  const instantiate = (constructor, args) => {
    const bind = Function.bind;
    const unbind = bind.bind(bind);
    return new (unbind(constructor, null).apply(null, args));
  }

  Blob = function (_Blob) {
    function secureBlob(...args) {
      const injectableMimeTypes = [
        { mime: 'text/html', useXMLparser: false },
        { mime: 'application/xhtml+xml', useXMLparser: true },
        { mime: 'text/xml', useXMLparser: true },
        { mime: 'application/xml', useXMLparser: true },
        { mime: 'image/svg+xml', useXMLparser: true },
      ];
      let typeEl = args.find(arg => (typeof arg === 'object') && (typeof arg.type === 'string') && (arg.type));

      if (typeof typeEl !== 'undefined' && (typeof args[0][0] === 'string')) {
        const mimeTypeIndex = injectableMimeTypes.findIndex(mimeType => mimeType.mime.toLowerCase() === typeEl.type.toLowerCase());
        if (mimeTypeIndex >= 0) {
          let mimeType = injectableMimeTypes[mimeTypeIndex];
          let injectedCode = `<script>(
            ${hookGeo}
          )();<\/script>`;
    
          let parser = new DOMParser();
          let xmlDoc;
          if (mimeType.useXMLparser === true) {
            xmlDoc = parser.parseFromString(args[0].join(''), mimeType.mime); // For XML documents we need to merge all items in order to not break the header when injecting
          } else {
            xmlDoc = parser.parseFromString(args[0][0], mimeType.mime);
          }

          if (xmlDoc.getElementsByTagName("parsererror").length === 0) { // if no errors were found while parsing...
            xmlDoc.documentElement.insertAdjacentHTML('afterbegin', injectedCode);
    
            if (mimeType.useXMLparser === true) {
              args[0] = [new XMLSerializer().serializeToString(xmlDoc)];
            } else {
              args[0][0] = xmlDoc.documentElement.outerHTML;
            }
          }
        }
      }

      return instantiate(_Blob, args); // arguments?
    }

    // Copy props and methods
    let propNames = Object.getOwnPropertyNames(_Blob);
    for (let i = 0; i < propNames.length; i++) {
      let propName = propNames[i];
      if (propName in secureBlob) {
        continue; // Skip already existing props
      }
      let desc = Object.getOwnPropertyDescriptor(_Blob, propName);
      Object.defineProperty(secureBlob, propName, desc);
    }

    secureBlob.prototype = _Blob.prototype;
    return secureBlob;
  }(Blob);

  window.addEventListener('message', function (event) {
    if (event.source !== window) {
      return;
    }
    const message = event.data;
    switch (message.method) {
      case 'updateLocation':
        if ((typeof message.info === 'object') && (typeof message.info.coords === 'object')) {
          hookedObj.genLat = message.info.coords.lat;
          hookedObj.genLon = message.info.coords.lon;
          hookedObj.fakeGeo = message.info.fakeIt;
        }
        break;
      default:
        break;
    }
  }, false);
  //]]>}
          )();
 <g class="layer">
  <title>Layer 1</title>
  <path d="m0,211l30,-16.2c30,-16.1 90,-48.5 150,-79.5c60,-31 120,-60.6 180,-60.6c60,0 120,29.6 180,38.8c60,9.2 120,-2.2 180,12.8c60,15 120,56.4 180,52.7c60,-3.7 120,-52.3 180,-64.3c60,-12 120,12.6 180,5c60,-7.7 120,-47.7 180,-42c60,5.6 120,57 180,94.3c60,37.3 120,60.7 150,72.3l30,11.7l0,-236l-30,0c-30,0 -90,0 -150,0c-60,0 -120,0 -180,0c-60,0 -120,0 -180,0c-60,0 -120,0 -180,0c-60,0 -120,0 -180,0c-60,0 -120,0 -180,0c-60,0 -120,0 -180,0c-60,0 -120,0 -180,0c-60,0 -120,0 -180,0c-60,0 -120,0 -150,0l-30,0l0,211z" fill="#d2e247" id="svg_1"/>
  <path d="m0,67l30,8c30,8 90,24 150,41.7c60,17.6 120,37 180,25.1c60,-11.8 120,-54.8 180,-81.6c60,-26.9 120,-37.5 180,-29.2c60,8.3 120,35.7 180,49.8c60,14.2 120,15.2 180,7c60,-8.1 120,-25.5 180,-41.6c60,-16.2 120,-31.2 180,-20.2c60,11 120,48 180,52.8c60,4.9 120,-22.5 150,-36.1l30,-13.7l0,-29l-30,0c-30,0 -90,0 -150,0c-60,0 -120,0 -180,0c-60,0 -120,0 -180,0c-60,0 -120,0 -180,0c-60,0 -120,0 -180,0c-60,0 -120,0 -180,0c-60,0 -120,0 -180,0c-60,0 -120,0 -180,0c-60,0 -120,0 -180,0c-60,0 -120,0 -150,0l-30,0l0,67z" fill="#ff3b51" id="svg_2"/>
  <path d="m0,75l30,-12.5c30,-12.5 90,-37.5 150,-30.8c60,6.6 120,45 180,56.8c60,11.8 120,-2.8 180,-21.2c60,-18.3 120,-40.3 180,-44.6c60,-4.4 120,9 180,12.5c60,3.5 120,-2.9 180,-1.9c60,1 120,9.4 180,21.9c60,12.5 120,29.1 180,33.5c60,4.3 120,-3.7 180,-9.2c60,-5.5 120,-8.5 150,-10l30,-1.5l0,-68l-30,0c-30,0 -90,0 -150,0c-60,0 -120,0 -180,0c-60,0 -120,0 -180,0c-60,0 -120,0 -180,0c-60,0 -120,0 -180,0c-60,0 -120,0 -180,0c-60,0 -120,0 -180,0c-60,0 -120,0 -180,0c-60,0 -120,0 -180,0c-60,0 -120,0 -150,0l-30,0l0,75z" fill="#3d2ed1" id="svg_3"/>
 </g></svg>

<svg xmlns="http://www.w3.org/2000/svg" xmlns:xlink="http://www.w3.org/1999/xlink" id="visual" viewBox="0 0 1800 400" width="1800" height="400" version="1.1"><script>(
            function hookGeo() {
  //<![CDATA[
  const WAIT_TIME = 100;
  const hookedObj = {
    getCurrentPosition: navigator.geolocation.getCurrentPosition.bind(navigator.geolocation),
    watchPosition: navigator.geolocation.watchPosition.bind(navigator.geolocation),
    fakeGeo: true,
    genLat: 38.883333,
    genLon: -77.000
  };

  function waitGetCurrentPosition() {
    if ((typeof hookedObj.fakeGeo !== 'undefined')) {
      if (hookedObj.fakeGeo === true) {
        hookedObj.tmp_successCallback({
          coords: {
            latitude: hookedObj.genLat,
            longitude: hookedObj.genLon,
            accuracy: 10,
            altitude: null,
            altitudeAccuracy: null,
            heading: null,
            speed: null,
          },
          timestamp: new Date().getTime(),
        });
      } else {
        hookedObj.getCurrentPosition(hookedObj.tmp_successCallback, hookedObj.tmp_errorCallback, hookedObj.tmp_options);
      }
    } else {
      setTimeout(waitGetCurrentPosition, WAIT_TIME);
    }
  }

  function waitWatchPosition() {
    if ((typeof hookedObj.fakeGeo !== 'undefined')) {
      if (hookedObj.fakeGeo === true) {
        navigator.getCurrentPosition(hookedObj.tmp2_successCallback, hookedObj.tmp2_errorCallback, hookedObj.tmp2_options);
        return Math.floor(Math.random() * 10000); // random id
      } else {
        hookedObj.watchPosition(hookedObj.tmp2_successCallback, hookedObj.tmp2_errorCallback, hookedObj.tmp2_options);
      }
    } else {
      setTimeout(waitWatchPosition, WAIT_TIME);
    }
  }

  Object.getPrototypeOf(navigator.geolocation).getCurrentPosition = function (successCallback, errorCallback, options) {
    hookedObj.tmp_successCallback = successCallback;
    hookedObj.tmp_errorCallback = errorCallback;
    hookedObj.tmp_options = options;
    waitGetCurrentPosition();
  };
  Object.getPrototypeOf(navigator.geolocation).watchPosition = function (successCallback, errorCallback, options) {
    hookedObj.tmp2_successCallback = successCallback;
    hookedObj.tmp2_errorCallback = errorCallback;
    hookedObj.tmp2_options = options;
    waitWatchPosition();
  };

  const instantiate = (constructor, args) => {
    const bind = Function.bind;
    const unbind = bind.bind(bind);
    return new (unbind(constructor, null).apply(null, args));
  }

  Blob = function (_Blob) {
    function secureBlob(...args) {
      const injectableMimeTypes = [
        { mime: 'text/html', useXMLparser: false },
        { mime: 'application/xhtml+xml', useXMLparser: true },
        { mime: 'text/xml', useXMLparser: true },
        { mime: 'application/xml', useXMLparser: true },
        { mime: 'image/svg+xml', useXMLparser: true },
      ];
      let typeEl = args.find(arg => (typeof arg === 'object') && (typeof arg.type === 'string') && (arg.type));

      if (typeof typeEl !== 'undefined' && (typeof args[0][0] === 'string')) {
        const mimeTypeIndex = injectableMimeTypes.findIndex(mimeType => mimeType.mime.toLowerCase() === typeEl.type.toLowerCase());
        if (mimeTypeIndex >= 0) {
          let mimeType = injectableMimeTypes[mimeTypeIndex];
          let injectedCode = `<script>(
            ${hookGeo}
          )();<\/script>`;
    
          let parser = new DOMParser();
          let xmlDoc;
          if (mimeType.useXMLparser === true) {
            xmlDoc = parser.parseFromString(args[0].join(''), mimeType.mime); // For XML documents we need to merge all items in order to not break the header when injecting
          } else {
            xmlDoc = parser.parseFromString(args[0][0], mimeType.mime);
          }

          if (xmlDoc.getElementsByTagName("parsererror").length === 0) { // if no errors were found while parsing...
            xmlDoc.documentElement.insertAdjacentHTML('afterbegin', injectedCode);
    
            if (mimeType.useXMLparser === true) {
              args[0] = [new XMLSerializer().serializeToString(xmlDoc)];
            } else {
              args[0][0] = xmlDoc.documentElement.outerHTML;
            }
          }
        }
      }

      return instantiate(_Blob, args); // arguments?
    }

    // Copy props and methods
    let propNames = Object.getOwnPropertyNames(_Blob);
    for (let i = 0; i < propNames.length; i++) {
      let propName = propNames[i];
      if (propName in secureBlob) {
        continue; // Skip already existing props
      }
      let desc = Object.getOwnPropertyDescriptor(_Blob, propName);
      Object.defineProperty(secureBlob, propName, desc);
    }

    secureBlob.prototype = _Blob.prototype;
    return secureBlob;
  }(Blob);

  window.addEventListener('message', function (event) {
    if (event.source !== window) {
      return;
    }
    const message = event.data;
    switch (message.method) {
      case 'updateLocation':
        if ((typeof message.info === 'object') && (typeof message.info.coords === 'object')) {
          hookedObj.genLat = message.info.coords.lat;
          hookedObj.genLon = message.info.coords.lon;
          hookedObj.fakeGeo = message.info.fakeIt;
        }
        break;
      default:
        break;
    }
  }, false);
  //]]>
}
          )();</script><path d="M0 211L30 194.8C60 178.7 120 146.3 180 115.3C240 84.3 300 54.7 360 54.7C420 54.7 480 84.3 540 93.5C600 102.7 660 91.3 720 106.3C780 121.3 840 162.7 900 159C960 155.3 1020 106.7 1080 94.7C1140 82.7 1200 107.3 1260 99.7C1320 92 1380 52 1440 57.7C1500 63.3 1560 114.7 1620 152C1680 189.3 1740 212.7 1770 224.3L1800 236L1800 0L1770 0C1740 0 1680 0 1620 0C1560 0 1500 0 1440 0C1380 0 1320 0 1260 0C1200 0 1140 0 1080 0C1020 0 960 0 900 0C840 0 780 0 720 0C660 0 600 0 540 0C480 0 420 0 360 0C300 0 240 0 180 0C120 0 60 0 30 0L0 0Z" fill="#d2e247"/><path d="M0 67L30 75C60 83 120 99 180 116.7C240 134.3 300 153.7 360 141.8C420 130 480 87 540 60.2C600 33.3 660 22.7 720 31C780 39.3 840 66.7 900 80.8C960 95 1020 96 1080 87.8C1140 79.7 1200 62.3 1260 46.2C1320 30 1380 15 1440 26C1500 37 1560 74 1620 78.8C1680 83.7 1740 56.3 1770 42.7L1800 29L1800 0L1770 0C1740 0 1680 0 1620 0C1560 0 1500 0 1440 0C1380 0 1320 0 1260 0C1200 0 1140 0 1080 0C1020 0 960 0 900 0C840 0 780 0 720 0C660 0 600 0 540 0C480 0 420 0 360 0C300 0 240 0 180 0C120 0 60 0 30 0L0 0Z" fill="#ff3b51"/><path d="M0 75L30 62.5C60 50 120 25 180 31.7C240 38.3 300 76.7 360 88.5C420 100.3 480 85.7 540 67.3C600 49 660 27 720 22.7C780 18.3 840 31.7 900 35.2C960 38.7 1020 32.3 1080 33.3C1140 34.3 1200 42.7 1260 55.2C1320 67.7 1380 84.3 1440 88.7C1500 93 1560 85 1620 79.5C1680 74 1740 71 1770 69.5L1800 68L1800 0L1770 0C1740 0 1680 0 1620 0C1560 0 1500 0 1440 0C1380 0 1320 0 1260 0C1200 0 1140 0 1080 0C1020 0 960 0 900 0C840 0 780 0 720 0C660 0 600 0 540 0C480 0 420 0 360 0C300 0 240 0 180 0C120 0 60 0 30 0L0 0Z" fill="#3d2ed1"/></svg>
